images/stage-water.svg

<?xml version="1.0" encoding="UTF-8" standalone="no"?>
<svg width="60px" height="60px" viewBox="0 0 60 60" version="1.1" xmlns="http://www.w3.org/2000/svg" xmlns:xlink="http://www.w3.org/1999/xlink" xmlns:sketch="http://www.bohemiancoding.com/sketch/ns">
    <!-- Generator: Sketch 3.3.3 (12081) - http://www.bohemiancoding.com/sketch -->
    <title>stage-water</title>
    <desc>Created with Sketch.</desc>
    <defs></defs>
    <g id="Page-1" stroke="none" stroke-width="1" fill="none" fill-rule="evenodd" sketch:type="MSPage">
        <g id="stage-water" sketch:type="MSArtboardGroup" fill="#9B9B9B">
            <path d="M16.3194521,44.6065849 L16.3161644,44.6065849 C14.2734247,44.6049434 12.3178082,43.3136226 10.5030137,40.7676415 C10.0054795,40.07 10.1687671,39.1009623 10.8673973,38.6041321 C11.5660274,38.1083962 12.5358904,38.2709057 13.0334247,38.968 C13.8580822,40.124717 15.0975342,41.5035849 16.3183562,41.5046792 L16.3194521,41.5046792 C17.5413699,41.5046792 18.7846575,40.1258113 19.6126027,38.9685472 C19.6131507,38.968 19.6136986,38.9669057 19.6142466,38.9663585 C21.4356164,36.4198302 23.3950685,35.1279623 25.4389041,35.1279623 L25.4416438,35.1279623 C27.4717808,35.1296038 29.4164384,36.4045094 31.2230137,38.9187547 C31.2356164,38.9346226 31.2476712,38.9515849 31.259726,38.968 C32.0843836,40.124717 33.3238356,41.5035849 34.5457534,41.5046792 L34.5468493,41.5046792 C35.769863,41.5046792 37.0131507,40.124717 37.8416438,38.9663585 C37.8421918,38.9658113 37.8427397,38.964717 37.8432877,38.9636226 C39.6663014,36.419283 41.6257534,35.1279623 43.6673973,35.1279623 L43.6728767,35.1279623 C45.7150685,35.1306981 47.669589,36.422566 49.4838356,38.9685472 C49.9808219,39.6661887 49.8175342,40.6346792 49.1189041,41.1315094 C48.4213699,41.6266981 47.450411,41.4658302 46.9528767,40.7670943 C46.1287671,39.6109245 44.889863,38.2315094 43.669589,38.2304151 L43.6673973,38.2304151 C42.4449315,38.2304151 41.2,39.6098302 40.369863,40.7687358 C40.369863,40.7687358 40.369863,40.7687358 40.3693151,40.769283 C38.5490411,43.3152642 36.590137,44.6065849 34.5468493,44.6065849 L34.5435616,44.6065849 C32.5139726,44.6054906 30.570411,43.3305849 28.7649315,40.8168868 C28.7523288,40.8010189 28.740274,40.7840566 28.7282192,40.7676415 C27.9030137,39.6109245 26.6630137,38.2309623 25.4405479,38.2304151 L25.4394521,38.2304151 C24.2153425,38.2304151 22.9709589,39.6103774 22.1424658,40.769283 C22.1419178,40.7703774 22.1413699,40.7709245 22.1408219,40.7720189 C20.3194521,43.3169057 18.3616438,44.6065849 16.3194521,44.6065849 L16.3194521,44.6065849 Z M16.3194521,35.1635283 L16.3161644,35.1635283 C14.2734247,35.1618868 12.3178082,33.870566 10.5030137,31.3240377 C10.0054795,30.6263962 10.1687671,29.6579057 10.8673973,29.1610755 C11.5660274,28.6636981 12.5358904,28.8273019 13.0334247,29.5249434 C13.8580822,30.6816604 15.0975342,32.0605283 16.3183562,32.0610755 L16.3194521,32.0610755 C17.5419178,32.0610755 18.7857534,30.6811132 19.6142466,29.5227547 C19.6142466,29.5222075 19.6147945,29.5216604 19.6153425,29.5211132 C21.4361644,26.9756792 23.3950685,25.6849057 25.4383562,25.6849057 L25.4410959,25.6849057 C27.4712329,25.686 29.4158904,26.9614528 31.2224658,29.4756981 C31.2350685,29.4921132 31.2471233,29.5085283 31.2591781,29.5249434 C32.0838356,30.6816604 33.3232877,32.0605283 34.5452055,32.0610755 L34.5463014,32.0610755 C35.7693151,32.0610755 37.0126027,30.6811132 37.8410959,29.5233019 C37.8416438,29.5222075 37.8421918,29.5216604 37.8427397,29.520566 C39.6657534,26.9756792 41.6252055,25.6849057 43.6668493,25.6849057 L43.6723288,25.6849057 C45.7145205,25.6870943 47.6690411,26.9795094 49.4832877,29.5254906 C49.980274,30.2231321 49.8169863,31.1916226 49.1183562,31.6884528 C48.4208219,32.1841887 47.449863,32.0222264 46.9523288,31.3240377 C46.1282192,30.1673208 44.8893151,28.7884528 43.6690411,28.7873585 L43.6668493,28.7873585 C42.4443836,28.7873585 41.1994521,30.1667736 40.3693151,31.3256792 C40.3693151,31.3256792 40.3693151,31.3256792 40.3687671,31.3256792 C38.5484932,33.8722075 36.589589,35.1635283 34.5463014,35.1635283 L34.5430137,35.1635283 C32.5134247,35.162434 30.569863,33.8875283 28.7643836,31.3738302 C28.7517808,31.3574151 28.739726,31.341 28.7276712,31.3245849 C27.9024658,30.1673208 26.6624658,28.7879057 25.44,28.7873585 L25.4389041,28.7873585 C24.2153425,28.7873585 22.9720548,30.1662264 22.1435616,31.3240377 C22.1430137,31.3245849 22.1424658,31.3251321 22.1419178,31.3262264 C20.3210959,33.8727547 18.3621918,35.1635283 16.3194521,35.1635283 L16.3194521,35.1635283 Z M16.3194521,25.7204717 L16.3161644,25.7204717 C14.2734247,25.7193774 12.3178082,24.4275094 10.5030137,21.8815283 C10.0054795,21.1838868 10.1687671,20.2153962 10.8673973,19.718566 C11.5660274,19.2217358 12.5358904,19.3847925 13.0334247,20.082434 C13.8580822,21.2391509 15.0975342,22.6174717 16.3183562,22.618566 L16.3194521,22.618566 C17.5408219,22.618566 18.7841096,21.2407925 19.6120548,20.0835283 C19.6126027,20.082434 19.6131507,20.0818868 19.6136986,20.0807925 C21.4350685,17.533717 23.3945205,16.2418491 25.4383562,16.2418491 L25.4410959,16.2418491 C27.4712329,16.2429434 29.4158904,17.5183962 31.2224658,20.0326415 C31.2350685,20.0490566 31.2471233,20.0654717 31.2591781,20.0818868 C32.0838356,21.2380566 33.3232877,22.6169245 34.5452055,22.6180189 L34.5463014,22.6180189 C35.7687671,22.6180189 37.0120548,21.2391509 37.84,20.0813396 C37.8405479,20.0807925 37.8410959,20.0802453 37.8416438,20.0796981 C39.6646575,17.5331698 41.6246575,16.2418491 43.6668493,16.2418491 L43.6723288,16.2418491 C45.7145205,16.2440377 47.6690411,17.5364528 49.4832877,20.082434 C49.980274,20.7806226 49.8169863,21.748566 49.1183562,22.2453962 C48.4191781,22.7416792 47.449863,22.5791698 46.9523288,21.8809811 C46.1282192,20.7242642 44.8893151,19.3453962 43.6690411,19.3437547 L43.6668493,19.3437547 C42.4443836,19.3437547 41.1983562,20.7248113 40.3682192,21.883717 C40.3676712,21.8842642 40.3671233,21.8853585 40.3665753,21.8859057 C38.5468493,24.4296981 36.5879452,25.7199245 34.5463014,25.7199245 L34.5430137,25.7199245 C32.5134247,25.7188302 30.569863,24.4433774 28.7643836,21.9302264 C28.7517808,21.9138113 28.739726,21.8973962 28.7276712,21.8809811 C27.9024658,20.723717 26.6619178,19.3443019 25.44,19.3437547 L25.4389041,19.3437547 C24.2147945,19.3437547 22.9709589,20.7242642 22.1424658,21.8826226 C22.1419178,21.8831698 22.1419178,21.883717 22.1413699,21.8842642 C20.3205479,24.4296981 18.3616438,25.7204717 16.3194521,25.7204717 L16.3194521,25.7204717 Z" id="Shape" sketch:type="MSShapeGroup"></path>
        </g>
    </g>
</svg>

<svg width="60" height="60" xmlns="http://www.w3.org/2000/svg"><g id="Page-1" stroke="none" stroke-width="1" fill="none" fill-rule="evenodd"><g id="stage-water" fill="#9B9B9B"><path d="M16.32 44.607h-.004c-2.043-.002-3.998-1.293-5.813-3.84a1.55 1.55 0 01.364-2.163 1.556 1.556 0 012.166.364c.825 1.157 2.065 2.536 3.285 2.537h.001c1.222 0 2.466-1.38 3.294-2.536l.001-.003c1.822-2.546 3.781-3.838 5.825-3.838h.003c2.03.002 3.974 1.277 5.781 3.79l.037.05c.824 1.157 2.064 2.536 3.286 2.537 1.224 0 2.467-1.38 3.296-2.539l.001-.002c1.823-2.545 3.783-3.836 5.824-3.836h.006c2.042.003 3.997 1.295 5.81 3.84a1.55 1.55 0 01-.364 2.164 1.555 1.555 0 01-2.166-.365c-.824-1.156-2.063-2.535-3.283-2.537h-.003c-1.222 0-2.467 1.38-3.297 2.539-1.821 2.546-3.78 3.838-5.823 3.838h-.003c-2.03-.002-3.974-1.276-5.78-3.79l-.036-.05c-.825-1.156-2.065-2.536-3.287-2.537h-.002c-1.224 0-2.468 1.38-3.297 2.54l-.001.002c-1.822 2.545-3.78 3.835-5.822 3.835zm0-9.443h-.004c-2.043-.002-3.998-1.293-5.813-3.84a1.55 1.55 0 01.364-2.163 1.554 1.554 0 012.166.364c.825 1.157 2.065 2.536 3.285 2.536h.001c1.223 0 2.467-1.38 3.295-2.538l.001-.002c1.821-2.545 3.78-3.836 5.823-3.836h.003c2.03.001 3.975 1.276 5.781 3.79l.037.05c.825 1.157 2.064 2.536 3.286 2.536h.001c1.223 0 2.467-1.38 3.295-2.538l.002-.002c1.823-2.545 3.782-3.836 5.824-3.836h.005c2.043.002 3.997 1.295 5.811 3.84a1.55 1.55 0 01-.365 2.163 1.555 1.555 0 01-2.166-.364c-.824-1.157-2.063-2.536-3.283-2.537h-.002c-1.223 0-2.468 1.38-3.298 2.539-1.82 2.546-3.78 3.838-5.823 3.838h-.003c-2.03-.002-3.973-1.276-5.779-3.79l-.036-.05c-.826-1.157-2.066-2.536-3.288-2.537h-.001c-1.224 0-2.467 1.38-3.295 2.537l-.002.002c-1.82 2.547-3.78 3.838-5.823 3.838zm0-9.444h-.004c-2.043 0-3.998-1.292-5.813-3.838a1.55 1.55 0 01.364-2.163 1.555 1.555 0 012.166.363c.825 1.157 2.065 2.535 3.285 2.537h.001c1.222 0 2.465-1.378 3.293-2.535 0-.002.001-.002.002-.003 1.821-2.547 3.78-3.84 5.824-3.84h.003c2.03.002 3.975 1.277 5.781 3.792l.037.049c.825 1.156 2.064 2.535 3.286 2.536h.001c1.223 0 2.466-1.379 3.294-2.537l.002-.001c1.823-2.547 3.783-3.838 5.825-3.838h.005c2.043.002 3.997 1.294 5.811 3.84a1.55 1.55 0 01-.365 2.163 1.554 1.554 0 01-2.166-.364c-.824-1.157-2.063-2.536-3.283-2.537h-.002c-1.223 0-2.469 1.38-3.299 2.54l-.001.002c-1.82 2.544-3.78 3.834-5.82 3.834h-.004c-2.03-.001-3.973-1.277-5.779-3.79l-.036-.049c-.826-1.157-2.066-2.537-3.288-2.537h-.001c-1.224 0-2.468 1.38-3.297 2.539v.001c-1.821 2.546-3.78 3.836-5.823 3.836z" id="Shape"/></g></g></svg>
